app/assets/images/icons/active/accessibility.svg

<?xml version="1.0" encoding="UTF-8" standalone="no"?>
<svg width="32px" height="232px" viewBox="0 0 32 232" version="1.1" xmlns="http://www.w3.org/2000/svg" xmlns:xlink="http://www.w3.org/1999/xlink" xmlns:sketch="http://www.bohemiancoding.com/sketch/ns">
    <title>accessibility</title>
    <description>Created with Sketch (http://www.bohemiancoding.com/sketch)</description>
    <defs></defs>
    <g id="Hotel-facilities" stroke="none" stroke-width="1" fill="none" fill-rule="evenodd" sketch:type="MSPage">
        <path d="M25.9089034,129.584516 L6.09318192,129.584516 C5.21422095,129.584516 4.5,130.291613 4.5,131.160774 L4.5,150.424774 C4.5,151.293935 5.21422095,152 6.09318192,152 L25.9089034,152 C26.7847364,152 27.5,151.293935 27.5,150.424774 L27.5,131.160774 C27.5,130.291613 26.785779,129.584516 25.9089034,129.584516 L25.9089034,129.584516 L25.9089034,129.584516 L25.9089034,129.584516 Z M11.2741511,150.268903 L10.9717802,150.268903 L10.9728229,150.266839 L10.9728229,142.888258 L11.2741511,142.888258 L11.2741511,150.266839 L11.2741511,150.268903 L11.2741511,150.268903 L11.2741511,150.268903 L11.2741511,150.268903 Z M21.1585521,150.268903 L20.8551385,150.268903 L20.8551385,142.888258 L21.1585521,142.888258 L21.1585521,150.268903 L21.1585521,150.268903 L21.1585521,150.268903 L21.1585521,150.268903 Z M25.6148737,150.268903 L23.1479441,150.268903 L23.1479441,142.888258 L23.6338229,142.888258 C24.0488009,142.888258 24.4293712,142.566194 24.4293712,142.101677 L24.4293712,136.494452 C24.4293712,135.900903 23.953919,135.410581 23.3304094,135.410581 L18.6989211,135.410581 C18.1265017,135.410581 17.6051725,135.84929 17.6051725,136.494452 L17.6051725,142.101677 C17.6051725,142.561032 17.9899134,142.888258 18.3996781,142.888258 L18.8647037,142.888258 L18.8647037,150.266839 L18.8657464,150.267871 L13.2666712,150.268903 L13.2677139,150.266839 L13.2677139,142.888258 L13.7504647,142.888258 C14.1664853,142.888258 14.5439276,142.566194 14.5439276,142.101677 L14.5439276,136.494452 C14.5439276,135.900903 14.0726461,135.410581 13.4501791,135.410581 L8.81764813,135.410581 C8.2452287,135.410581 7.72285688,135.84929 7.72285688,136.494452 L7.72285688,142.101677 C7.72285688,142.561032 8.10864046,142.888258 8.51840519,142.888258 L8.98238814,142.888258 L8.98238814,150.267871 L6.25166599,150.268903 L6.25166599,131.351742 L25.6148737,131.351742 L25.6148737,150.268903 Z M24.7025477,124.915613 L24.707761,122.584774 L22.0156172,125.250065 L22.0156172,120 L20.2931457,120 L20.2931457,125.269677 L17.5864046,122.586839 L17.5864046,124.911484 L21.1439548,128.435613 L24.7025477,124.915613 Z M10.1480801,128.435613 L11.8705517,128.435613 L11.8715944,123.169032 L14.5772927,125.848774 L14.5772927,123.525161 L11.0176572,120 L7.45697901,123.525161 L7.45489369,125.853935 L10.1480801,123.186581 L10.1480801,128.435613 Z M11.1532028,134.957419 C11.9810735,134.957419 12.6462895,134.297806 12.6462895,133.482323 C12.6462895,132.667871 11.9810735,132.008258 11.1532028,132.008258 C10.3295027,132.008258 9.66011605,132.667871 9.66011605,133.482323 C9.66011605,134.297806 10.32846,134.957419 11.1532028,134.957419 Z M21.036561,134.957419 C21.8613038,134.957419 22.5296478,134.297806 22.5296478,133.483355 C22.5296478,132.668903 21.8613038,132.008258 21.036561,132.008258 C20.2107756,132.008258 19.541389,132.668903 19.541389,133.483355 C19.541389,134.297806 20.2107756,134.957419 21.036561,134.957419 Z M21.036561,134.957419" id="accessibility--white" fill="#206FAC" sketch:type="MSShapeGroup"></path>
        <path d="M25.9089034,89.5845161 L6.09318192,89.5845161 C5.21422095,89.5845161 4.5,90.2916129 4.5,91.1607742 L4.5,110.424774 C4.5,111.293935 5.21422095,112 6.09318192,112 L25.9089034,112 C26.7847364,112 27.5,111.293935 27.5,110.424774 L27.5,91.1607742 C27.5,90.2916129 26.785779,89.5845161 25.9089034,89.5845161 L25.9089034,89.5845161 L25.9089034,89.5845161 L25.9089034,89.5845161 Z M11.2741511,110.268903 L10.9717802,110.268903 L10.9728229,110.266839 L10.9728229,102.888258 L11.2741511,102.888258 L11.2741511,110.266839 L11.2741511,110.268903 L11.2741511,110.268903 L11.2741511,110.268903 L11.2741511,110.268903 Z M21.1585521,110.268903 L20.8551385,110.268903 L20.8551385,102.888258 L21.1585521,102.888258 L21.1585521,110.268903 L21.1585521,110.268903 L21.1585521,110.268903 L21.1585521,110.268903 Z M25.6148737,110.268903 L23.1479441,110.268903 L23.1479441,102.888258 L23.6338229,102.888258 C24.0488009,102.888258 24.4293712,102.566194 24.4293712,102.101677 L24.4293712,96.4944516 C24.4293712,95.9009032 23.953919,95.4105806 23.3304094,95.4105806 L18.6989211,95.4105806 C18.1265017,95.4105806 17.6051725,95.8492903 17.6051725,96.4944516 L17.6051725,102.101677 C17.6051725,102.561032 17.9899134,102.888258 18.3996781,102.888258 L18.8647037,102.888258 L18.8647037,110.266839 L18.8657464,110.267871 L13.2666712,110.268903 L13.2677139,110.266839 L13.2677139,102.888258 L13.7504647,102.888258 C14.1664853,102.888258 14.5439276,102.566194 14.5439276,102.101677 L14.5439276,96.4944516 C14.5439276,95.9009032 14.0726461,95.4105806 13.4501791,95.4105806 L8.81764813,95.4105806 C8.2452287,95.4105806 7.72285688,95.8492903 7.72285688,96.4944516 L7.72285688,102.101677 C7.72285688,102.561032 8.10864046,102.888258 8.51840519,102.888258 L8.98238814,102.888258 L8.98238814,110.267871 L6.25166599,110.268903 L6.25166599,91.3517419 L25.6148737,91.3517419 L25.6148737,110.268903 Z M24.7025477,84.9156129 L24.707761,82.5847742 L22.0156172,85.2500645 L22.0156172,80 L20.2931457,80 L20.2931457,85.2696774 L17.5864046,82.5868387 L17.5864046,84.9114839 L21.1439548,88.4356129 L24.7025477,84.9156129 Z M10.1480801,88.4356129 L11.8705517,88.4356129 L11.8715944,83.1690323 L14.5772927,85.8487742 L14.5772927,83.5251613 L11.0176572,80 L7.45697901,83.5251613 L7.45489369,85.8539355 L10.1480801,83.1865806 L10.1480801,88.4356129 Z M11.1532028,94.9574194 C11.9810735,94.9574194 12.6462895,94.2978065 12.6462895,93.4823226 C12.6462895,92.667871 11.9810735,92.0082581 11.1532028,92.0082581 C10.3295027,92.0082581 9.66011605,92.667871 9.66011605,93.4823226 C9.66011605,94.2978065 10.32846,94.9574194 11.1532028,94.9574194 Z M21.036561,94.9574194 C21.8613038,94.9574194 22.5296478,94.2978065 22.5296478,93.4833548 C22.5296478,92.6689032 21.8613038,92.0082581 21.036561,92.0082581 C20.2107756,92.0082581 19.541389,92.6689032 19.541389,93.4833548 C19.541389,94.2978065 20.2107756,94.9574194 21.036561,94.9574194 Z M21.036561,94.9574194" id="accessibility--white" fill="#FFFFFF" sketch:type="MSShapeGroup"></path>
        <path d="M25.9089034,49.5845161 L6.09318192,49.5845161 C5.21422095,49.5845161 4.5,50.2916129 4.5,51.1607742 L4.5,70.4247742 C4.5,71.2939355 5.21422095,72 6.09318192,72 L25.9089034,72 C26.7847364,72 27.5,71.2939355 27.5,70.4247742 L27.5,51.1607742 C27.5,50.2916129 26.785779,49.5845161 25.9089034,49.5845161 L25.9089034,49.5845161 L25.9089034,49.5845161 L25.9089034,49.5845161 Z M11.2741511,70.2689032 L10.9717802,70.2689032 L10.9728229,70.2668387 L10.9728229,62.8882581 L11.2741511,62.8882581 L11.2741511,70.2668387 L11.2741511,70.2689032 L11.2741511,70.2689032 L11.2741511,70.2689032 L11.2741511,70.2689032 Z M21.1585521,70.2689032 L20.8551385,70.2689032 L20.8551385,62.8882581 L21.1585521,62.8882581 L21.1585521,70.2689032 L21.1585521,70.2689032 L21.1585521,70.2689032 L21.1585521,70.2689032 Z M25.6148737,70.2689032 L23.1479441,70.2689032 L23.1479441,62.8882581 L23.6338229,62.8882581 C24.0488009,62.8882581 24.4293712,62.5661935 24.4293712,62.1016774 L24.4293712,56.4944516 C24.4293712,55.9009032 23.953919,55.4105806 23.3304094,55.4105806 L18.6989211,55.4105806 C18.1265017,55.4105806 17.6051725,55.8492903 17.6051725,56.4944516 L17.6051725,62.1016774 C17.6051725,62.5610323 17.9899134,62.8882581 18.3996781,62.8882581 L18.8647037,62.8882581 L18.8647037,70.2668387 L18.8657464,70.267871 L13.2666712,70.2689032 L13.2677139,70.2668387 L13.2677139,62.8882581 L13.7504647,62.8882581 C14.1664853,62.8882581 14.5439276,62.5661935 14.5439276,62.1016774 L14.5439276,56.4944516 C14.5439276,55.9009032 14.0726461,55.4105806 13.4501791,55.4105806 L8.81764813,55.4105806 C8.2452287,55.4105806 7.72285688,55.8492903 7.72285688,56.4944516 L7.72285688,62.1016774 C7.72285688,62.5610323 8.10864046,62.8882581 8.51840519,62.8882581 L8.98238814,62.8882581 L8.98238814,70.267871 L6.25166599,70.2689032 L6.25166599,51.3517419 L25.6148737,51.3517419 L25.6148737,70.2689032 Z M24.7025477,44.9156129 L24.707761,42.5847742 L22.0156172,45.2500645 L22.0156172,40 L20.2931457,40 L20.2931457,45.2696774 L17.5864046,42.5868387 L17.5864046,44.9114839 L21.1439548,48.4356129 L24.7025477,44.9156129 Z M10.1480801,48.4356129 L11.8705517,48.4356129 L11.8715944,43.1690323 L14.5772927,45.8487742 L14.5772927,43.5251613 L11.0176572,40 L7.45697901,43.5251613 L7.45489369,45.8539355 L10.1480801,43.1865806 L10.1480801,48.4356129 Z M11.1532028,54.9574194 C11.9810735,54.9574194 12.6462895,54.2978065 12.6462895,53.4823226 C12.6462895,52.667871 11.9810735,52.0082581 11.1532028,52.0082581 C10.3295027,52.0082581 9.66011605,52.667871 9.66011605,53.4823226 C9.66011605,54.2978065 10.32846,54.9574194 11.1532028,54.9574194 Z M21.036561,54.9574194 C21.8613038,54.9574194 22.5296478,54.2978065 22.5296478,53.4833548 C22.5296478,52.6689032 21.8613038,52.0082581 21.036561,52.0082581 C20.2107756,52.0082581 19.541389,52.6689032 19.541389,53.4833548 C19.541389,54.2978065 20.2107756,54.9574194 21.036561,54.9574194 Z M21.036561,54.9574194" id="accessibility--light-grey" fill="#67737B" sketch:type="MSShapeGroup"></path>
        <path d="M25.9089034,9.58451613 L6.09318192,9.58451613 C5.21422095,9.58451613 4.5,10.2916129 4.5,11.1607742 L4.5,30.4247742 C4.5,31.2939355 5.21422095,32 6.09318192,32 L25.9089034,32 C26.7847364,32 27.5,31.2939355 27.5,30.4247742 L27.5,11.1607742 C27.5,10.2916129 26.785779,9.58451613 25.9089034,9.58451613 L25.9089034,9.58451613 L25.9089034,9.58451613 L25.9089034,9.58451613 Z M11.2741511,30.2689032 L10.9717802,30.2689032 L10.9728229,30.2668387 L10.9728229,22.8882581 L11.2741511,22.8882581 L11.2741511,30.2668387 L11.2741511,30.2689032 L11.2741511,30.2689032 L11.2741511,30.2689032 L11.2741511,30.2689032 Z M21.1585521,30.2689032 L20.8551385,30.2689032 L20.8551385,22.8882581 L21.1585521,22.8882581 L21.1585521,30.2689032 L21.1585521,30.2689032 L21.1585521,30.2689032 L21.1585521,30.2689032 Z M25.6148737,30.2689032 L23.1479441,30.2689032 L23.1479441,22.8882581 L23.6338229,22.8882581 C24.0488009,22.8882581 24.4293712,22.5661935 24.4293712,22.1016774 L24.4293712,16.4944516 C24.4293712,15.9009032 23.953919,15.4105806 23.3304094,15.4105806 L18.6989211,15.4105806 C18.1265017,15.4105806 17.6051725,15.8492903 17.6051725,16.4944516 L17.6051725,22.1016774 C17.6051725,22.5610323 17.9899134,22.8882581 18.3996781,22.8882581 L18.8647037,22.8882581 L18.8647037,30.2668387 L18.8657464,30.267871 L13.2666712,30.2689032 L13.2677139,30.2668387 L13.2677139,22.8882581 L13.7504647,22.8882581 C14.1664853,22.8882581 14.5439276,22.5661935 14.5439276,22.1016774 L14.5439276,16.4944516 C14.5439276,15.9009032 14.0726461,15.4105806 13.4501791,15.4105806 L8.81764813,15.4105806 C8.2452287,15.4105806 7.72285688,15.8492903 7.72285688,16.4944516 L7.72285688,22.1016774 C7.72285688,22.5610323 8.10864046,22.8882581 8.51840519,22.8882581 L8.98238814,22.8882581 L8.98238814,30.267871 L6.25166599,30.2689032 L6.25166599,11.3517419 L25.6148737,11.3517419 L25.6148737,30.2689032 Z M24.7025477,4.9156129 L24.707761,2.58477419 L22.0156172,5.25006452 L22.0156172,0 L20.2931457,0 L20.2931457,5.26967742 L17.5864046,2.58683871 L17.5864046,4.91148387 L21.1439548,8.4356129 L24.7025477,4.9156129 Z M10.1480801,8.4356129 L11.8705517,8.4356129 L11.8715944,3.16903226 L14.5772927,5.84877419 L14.5772927,3.52516129 L11.0176572,0 L7.45697901,3.52516129 L7.45489369,5.85393548 L10.1480801,3.18658065 L10.1480801,8.4356129 Z M11.1532028,14.9574194 C11.9810735,14.9574194 12.6462895,14.2978065 12.6462895,13.4823226 C12.6462895,12.667871 11.9810735,12.0082581 11.1532028,12.0082581 C10.3295027,12.0082581 9.66011605,12.667871 9.66011605,13.4823226 C9.66011605,14.2978065 10.32846,14.9574194 11.1532028,14.9574194 Z M21.036561,14.9574194 C21.8613038,14.9574194 22.5296478,14.2978065 22.5296478,13.4833548 C22.5296478,12.6689032 21.8613038,12.0082581 21.036561,12.0082581 C20.2107756,12.0082581 19.541389,12.6689032 19.541389,13.4833548 C19.541389,14.2978065 20.2107756,14.9574194 21.036561,14.9574194 Z M21.036561,14.9574194" id="accessibility--dark-grey" fill="#3A434E" sketch:type="MSShapeGroup"></path>
    </g>
</svg>

<svg width="32" height="232" viewBox="0 0 32 232" xmlns="http://www.w3.org/2000/svg" xmlns:sketch="http://www.bohemiancoding.com/sketch/ns"><title>accessibility</title><g sketch:type="MSPage" fill="none"><path d="M25.909 129.585h-19.816c-.879 0-1.593.707-1.593 1.576v19.264c0 .869.714 1.575 1.593 1.575h19.816c.876 0 1.591-.706 1.591-1.575v-19.264c0-.869-.714-1.576-1.591-1.576zm-14.635 20.684h-.302l.001-.002v-7.379h.301v7.380999999999999zm9.884 0h-.303v-7.381h.303v7.381zm4.456 0h-2.467v-7.381h.486c.415 0 .796-.322.796-.787v-5.607c0-.594-.475-1.084-1.099-1.084h-4.631c-.572 0-1.094.439-1.094 1.084v5.607c0 .459.385.787.795.787h.465v7.379l.001.001-5.599.001.001-.002v-7.379h.483c.416 0 .793-.322.793-.787v-5.607c0-.594-.471-1.084-1.094-1.084h-4.633c-.572 0-1.095.439-1.095 1.084v5.607c0 .459.386.787.796.787h.464v7.38l-2.731.001v-18.917h19.363v18.917zm-.912-25.353l.005-2.331-2.692 2.665v-5.25h-1.722v5.27l-2.707-2.683v2.325l3.558 3.524 3.559-3.52zm-14.554 3.52h1.722l.001-5.267 2.706 2.68v-2.324l-3.56-3.525-3.561 3.525-.002 2.329 2.693-2.667v5.249zm1.005 6.522c.828 0 1.493-.66 1.493-1.475 0-.814-.665-1.474-1.493-1.474-.824 0-1.493.66-1.493 1.474 0 .815.668 1.475 1.493 1.475zm9.883 0c.825 0 1.493-.66 1.493-1.474s-.668-1.475-1.493-1.475c-.826 0-1.495.661-1.495 1.475 0 .814.669 1.474 1.495 1.474zm0 0" id="accessibility--white" fill="#206FAC" sketch:type="MSShapeGroup"/><path d="M25.909 89.585h-19.816c-.879 0-1.593.707-1.593 1.576v19.264c0 .869.714 1.575 1.593 1.575h19.816c.876 0 1.591-.706 1.591-1.575v-19.264c0-.869-.714-1.576-1.591-1.576zm-14.635 20.684h-.302l.001-.002v-7.379h.301v7.380999999999999zm9.884 0h-.303v-7.381h.303v7.381zm4.456 0h-2.467v-7.381h.486c.415 0 .796-.322.796-.787v-5.607c0-.594-.475-1.084-1.099-1.084h-4.631c-.572 0-1.094.439-1.094 1.084v5.607c0 .459.385.787.795.787h.465v7.379l.001.001-5.599.001.001-.002v-7.379h.483c.416 0 .793-.322.793-.787v-5.607c0-.594-.471-1.084-1.094-1.084h-4.633c-.572 0-1.095.439-1.095 1.084v5.607c0 .459.386.787.796.787h.464v7.38l-2.731.001v-18.917h19.363v18.917zm-.912-25.353l.005-2.331-2.692 2.665v-5.25h-1.722v5.27l-2.707-2.683v2.325l3.558 3.524 3.559-3.52zm-14.554 3.52h1.722l.001-5.267 2.706 2.68v-2.324l-3.56-3.525-3.561 3.525-.002 2.329 2.693-2.667v5.249zm1.005 6.522c.828 0 1.493-.66 1.493-1.475 0-.814-.665-1.474-1.493-1.474-.824 0-1.493.66-1.493 1.474 0 .815.668 1.475 1.493 1.475zm9.883 0c.825 0 1.493-.66 1.493-1.474s-.668-1.475-1.493-1.475c-.826 0-1.495.661-1.495 1.475 0 .814.669 1.474 1.495 1.474zm0 0" fill="#fff" sketch:type="MSShapeGroup"/><path d="M25.909 49.585h-19.816c-.879 0-1.593.707-1.593 1.576v19.264c0 .869.714 1.575 1.593 1.575h19.816c.876 0 1.591-.706 1.591-1.575v-19.264c0-.869-.714-1.576-1.591-1.576zm-14.635 20.684h-.302l.001-.002v-7.379h.301v7.380999999999999zm9.884 0h-.303v-7.381h.303v7.381zm4.456 0h-2.467v-7.381h.486c.415 0 .796-.322.796-.787v-5.607c0-.594-.475-1.084-1.099-1.084h-4.631c-.572 0-1.094.439-1.094 1.084v5.607c0 .459.385.787.795.787h.465v7.379l.001.001-5.599.001.001-.002v-7.379h.483c.416 0 .793-.322.793-.787v-5.607c0-.594-.471-1.084-1.094-1.084h-4.633c-.572 0-1.095.439-1.095 1.084v5.607c0 .459.386.787.796.787h.464v7.38l-2.731.001v-18.917h19.363v18.917zm-.912-25.353l.005-2.331-2.692 2.665v-5.25h-1.722v5.27l-2.707-2.683v2.325l3.558 3.524 3.559-3.52zm-14.554 3.52h1.722l.001-5.267 2.706 2.68v-2.324l-3.56-3.525-3.561 3.525-.002 2.329 2.693-2.667v5.249zm1.005 6.522c.828 0 1.493-.66 1.493-1.475 0-.814-.665-1.474-1.493-1.474-.824 0-1.493.66-1.493 1.474 0 .815.668 1.475 1.493 1.475zm9.883 0c.825 0 1.493-.66 1.493-1.474s-.668-1.475-1.493-1.475c-.826 0-1.495.661-1.495 1.475 0 .814.669 1.474 1.495 1.474zm0 0" fill="#67737B" sketch:type="MSShapeGroup"/><path d="M25.909 9.585h-19.816c-.879 0-1.593.707-1.593 1.576v19.264c0 .869.714 1.575 1.593 1.575h19.816c.876 0 1.591-.706 1.591-1.575v-19.264c0-.869-.714-1.576-1.591-1.576zm-14.635 20.684h-.302l.001-.002v-7.379h.301v7.380999999999999zm9.884 0h-.303v-7.381h.303v7.381zm4.456 0h-2.467v-7.381h.486c.415 0 .796-.322.796-.787v-5.607c0-.594-.475-1.084-1.099-1.084h-4.631c-.572 0-1.094.439-1.094 1.084v5.607c0 .459.385.787.795.787h.465v7.379l.001.001-5.599.001.001-.002v-7.379h.483c.416 0 .793-.322.793-.787v-5.607c0-.594-.471-1.084-1.094-1.084h-4.633c-.572 0-1.095.439-1.095 1.084v5.607c0 .459.386.787.796.787h.464v7.38l-2.731.001v-18.917h19.363v18.917zm-.912-25.353l.005-2.331-2.692 2.665v-5.25h-1.722v5.27l-2.707-2.683v2.325l3.558 3.524 3.559-3.52zm-14.554 3.52h1.722l.001-5.267 2.706 2.68v-2.324l-3.56-3.525-3.561 3.525-.002 2.329 2.693-2.667v5.249zm1.005 6.522c.828 0 1.493-.66 1.493-1.475 0-.814-.665-1.474-1.493-1.474-.824 0-1.493.66-1.493 1.474 0 .815.668 1.475 1.493 1.475zm9.883 0c.825 0 1.493-.66 1.493-1.474s-.668-1.475-1.493-1.475c-.826 0-1.495.661-1.495 1.475 0 .814.669 1.474 1.495 1.474zm0 0" fill="#3A434E" sketch:type="MSShapeGroup"/></g></svg>
